X:1
T:Title
%%score { ( 1 3 ) | ( 2 4 ) }
L:1/8
M:4/4
K:F
V:1 treble nm="Grand Piano"
V:3 treble 
V:2 bass 
V:4 bass 
V:1
 z4 z2[Q:1/4=100] AB | c2 c2 cAFG | F2 E2 E2 [EG][FA] | [GB]2 [GB]2 [GB]EFG | G2 F2 F2 AB | %5
 c2 c2 cABc | [Fd]2 [Fd]2 [DB]2 [Fd][Fd] | [Fc]2 [FA]2 [FG]2 =B2 |[M:3/4] [Ec]6 |[M:1/4] A>B | %10
[M:4/4] [Ac]4 z4 | [DG]4 [B,D]2 [DF]>[K:bass][B,D] | z [C,G,][K:treble]B-[DB] B2 A>G | %13
[M:3/4] z A, c-[Gc] c2 |[M:1/4] A>B |[M:4/4] [Ac]2- [CAc]2 A2 [GB]>[FA] | %16
[M:17/16] z/ z/ z/ z/ z/ z/ z [Fd]/-[Fd]-<[Fd] z/ z/ z |[M:4/4] [Fc]2 [FA]2 [EG]3 F |[M:3/4] F6 |] %19
V:2
 z4 z2 [F,F][F,G,F] | [F,A,F]2 [F,A,F]2 [F,A,F][F,CF][F,A,C][F,B,C] | %2
 [C,A,C]2 [C,G,C]2 [C,G,C]2 [C,C][C,C] | [C,C]2 [C,C]2 [C,C][C,G,C][C,A,C][C,B,C] | %4
 [F,B,C]2 [F,A,C]2 [F,A,C]2 [F,F][F,G,F] | [F,A,F]2 [F,A,F]2 [F,A,F][F,F][F,G,F][F,A,F] | %6
 [B,,B,]2 [B,,B,]2 [B,,B,]2 [B,,B,][B,,B,] | [F,A,]2 [F,C]2 [D,=B,]2 [G,F]2 |[M:3/4] [C,G,]6 | %9
[M:1/4][K:treble] F>G |[M:4/4][K:bass] F,2 F,2 [F,CF]2 [F,C]2 | %11
 [B,,B,]2 [B,,B,]2 [B,,G,]2 [B,,G,]2 | .[C,G,]2 [C,G,][C,F,] [C,E,C]2 E>E | %13
[M:3/4] [F,A,]F, F,[F,B,][K:treble] [F,A,F]2 |[M:1/4] F>G |[M:4/4][K:bass] F,2 F,2 [F,CF]2 [F,C]2 | %16
[M:17/16] [B,,B,]-<[B,,B,][B,,B,]-<[B,,B,].[=B,,_A,]3/2 z [B,,A,]>[B,,A,] | %17
[M:4/4] [C,A,]2 [C,C]2 [C,B,]3 [F,A,] |[M:3/4] [A,C]2 B,2 A,2 |] %19
V:3
 x8 | x8 | x8 | x8 | x8 | x8 | x8 | x8 |[M:3/4] x6 |[M:1/4] x2 |[M:4/4] C2 C2 A2 [GB]>[FA] | %11
 x15/2[K:bass] x/ | [B,E]2[K:treble] .E2 z4 |[M:3/4] F2 .[CA]2 z2 |[M:1/4] x2 |[M:4/4] C2 z2 z4 | %16
[M:17/16] [DG]/-[DG]/-[DG]/-[DG]/-[DG]-<[DG] z [=B,,_A,]3/2[Fd]>[Fd] |[M:4/4] x8 | %18
[M:3/4] z2 D2 C2 |] %19
V:4
 x8 | x8 | x8 | x8 | x8 | x8 | x8 | x8 |[M:3/4] x6 |[M:1/4][K:treble] x2 |[M:4/4][K:bass] x8 | x8 | %12
 x8 |[M:3/4] x4[K:treble] x2 |[M:1/4] x2 |[M:4/4][K:bass] x8 |[M:17/16] x17/2 |[M:4/4] x8 | %18
[M:3/4] F,6 |] %19

